picto/chair-lift-right.svg

<svg class="color-immutable" width="24" height="24" viewBox="0 0 24 24" fill="none" xmlns="http://www.w3.org/2000/svg"><path d="M0 22.5V1.5C0 0.675 0.675 0 1.5 0H22.5C23.325 0 24 0.675 24 1.5V22.5C24 23.325 23.325 24 22.5 24H1.5C0.675 24 0 23.325 0 22.5Z" fill="#2D327D"/><path d="M8.21198 5.132L21 3V3.684L8.21198 5.816V5.132Z" fill="white"/><path d="M6.411 5.43201V6.11601L3 6.68501V6.00001L6.411 5.43201Z" fill="white"/><path d="M4.72498 17.026V13.317C4.72498 12.697 5.22998 12.193 5.84998 12.193C6.21498 12.193 6.55698 12.369 6.76798 12.668L8.62698 15.29C8.68698 15.376 8.71998 15.478 8.71998 15.583C8.71998 15.863 8.49298 16.09 8.21498 16.09C8.04998 16.09 7.89598 16.009 7.80198 15.876L7.04998 14.817V16.39H9.11198C9.52698 16.39 9.86298 16.726 9.86298 17.14V20.309C9.86198 20.69 9.55198 21 9.16798 21C8.78598 21 8.47498 20.69 8.47498 20.306V17.775H5.47498C5.06098 17.776 4.72498 17.439 4.72498 17.026Z" fill="white"/><path d="M6.824 4.5H7.799V8.431L3.975 9.069V18.525H7.799V19.5H3V8.243L6.824 7.606V4.5Z" fill="white"/><path d="M5.98597 11.778C5.40597 11.778 4.93597 11.307 4.93597 10.728C4.93597 10.148 5.40597 9.67799 5.98597 9.67799C6.56597 9.67799 7.03597 10.148 7.03597 10.728C7.03597 11.307 6.56597 11.778 5.98597 11.778Z" fill="white"/></svg>

<svg class="color-immutable" width="24" height="24" viewBox="0 0 24 24" fill="none" xmlns="http://www.w3.org/2000/svg"><g clip-path="url(#a)"><path d="M0 22.5v-21C0 .675.675 0 1.5 0h21c.825 0 1.5.675 1.5 1.5v21c0 .825-.675 1.5-1.5 1.5h-21C.675 24 0 23.325 0 22.5Z" fill="#2D327D"/><path d="M8.212 5.132 21 3v.684L8.212 5.816v-.684ZM6.411 5.432v.684L3 6.685V6l3.411-.568ZM4.725 17.026v-3.709a1.126 1.126 0 0 1 2.043-.649l1.859 2.622a.507.507 0 0 1-.825.586l-.752-1.059v1.573h2.062a.75.75 0 0 1 .751.75v3.169a.694.694 0 0 1-1.388-.003v-2.531h-3a.75.75 0 0 1-.75-.749Z" fill="#fff"/><path d="M6.824 4.5h.975v3.931l-3.824.638v9.456h3.824v.975H3V8.243l3.824-.637V4.5Z" fill="#fff"/><path d="M5.986 11.778a1.05 1.05 0 1 1 .001-2.101 1.05 1.05 0 0 1-.001 2.101Z" fill="#fff"/></g><defs><clipPath id="a"><path fill="#fff" d="M0 0h24v24H0z"/></clipPath></defs></svg>
